svg/Octicons/no-newline.svg

<svg xmlns="http://www.w3.org/2000/svg" viewBox="0 0 1024 1024"><path d="m896 320v128h-128v-128l-192 192 192 192v-128h192c0 0 64-.375 64-64s0-192 0-192h-128m-672-32c-123.72 0-224 100.28-224 224 0 123.75 100.28 224 224 224s224-100.25 224-224c0-123.72-100.28-224-224-224m-128 224c0-70.66 57.34-128 128-128 18.75 0 36.406 4.219 52.47 11.531l-168.94 168.97c-7.312-16.12-11.531-33.75-11.531-52.5m128 128c-18.75 0-36.406-4.25-52.47-11.5l168.94-168.97c7.312 16.06 11.531 33.719 11.531 52.47 0 70.62-57.34 128-128 128"/></svg>

<svg height="1024" width="1024" xmlns="http://www.w3.org/2000/svg">
  <path d="M896 320v128H768V320L576 512l192 192V576h192c0 0 64-0.375 64-64s0-192 0-192H896zM224 288C100.281 288 0 388.281 0 512c0 123.75 100.281 224 224 224s224-100.25 224-224C448 388.281 347.719 288 224 288zM96 512c0-70.656 57.344-128 128-128 18.75 0 36.406 4.219 52.469 11.531L107.531 564.5C100.219 548.375 96 530.75 96 512zM224 640c-18.75 0-36.406-4.25-52.469-11.5l168.938-168.969C347.781 475.594 352 493.25 352 512 352 582.625 294.656 640 224 640z" />
</svg>
